src/assets/images/SavePawLogo.svg

<svg width="279" height="44" viewBox="0 0 279 44" fill="none" xmlns="http://www.w3.org/2000/svg">
<path d="M274.924 2.67506C277.021 2.67506 278.367 4.03532 278.367 6.11571V40.2421H271.443V23.839H269.464V40.2421H262.54V6.11571C262.54 4.03532 263.925 2.67506 266.022 2.67506C268.119 2.67506 269.464 4.03532 269.464 6.11571V17.1978H271.443V6.11571C271.443 4.03532 272.827 2.67506 274.924 2.67506ZM251.66 31.9606H258.03C260.325 31.9606 260.997 33.8009 260.997 35.3212C260.997 36.8815 260.285 38.6418 258.03 38.6418H248.771C243.628 38.6418 242.678 37.4016 242.678 32.4007V10.2765C242.678 5.27555 243.628 4.07532 248.771 4.07532H257.12C259.414 4.07532 260.166 5.91567 260.166 7.43596C260.166 8.99625 259.375 10.8366 257.12 10.8366H251.66C250.947 10.8366 250.631 11.0766 250.631 11.9968V30.8004C250.631 31.7205 250.947 31.9606 251.66 31.9606Z" fill="#323232"/>
<path d="M208.553 20.0103C213.836 19.2277 218.923 15.7449 219.354 11.0881H209.884C207.536 11.0881 206.596 9.44457 206.596 7.84015C206.596 6.27485 207.496 4.55303 209.884 4.55303H236.963C239.35 4.55303 240.25 6.27485 240.25 7.84015C240.25 9.44457 239.311 11.0881 236.963 11.0881H227.454C227.376 12.0664 227.219 13.0056 226.945 13.9057C234.067 13.5926 240.368 17.9363 240.916 26.428H233.167C232.189 21.693 228.119 19.1494 223.502 19.8929C219.784 23.9236 214.188 26.4672 209.688 26.4672C207.34 26.4672 205.853 25.1367 205.853 23.0626C205.853 21.4973 206.988 20.206 208.553 20.0103ZM227.415 32.8849H238.45C240.798 32.8849 241.737 34.4893 241.737 36.0937C241.737 37.7764 240.759 39.3026 238.45 39.3026H208.397C206.088 39.3026 205.109 37.7764 205.109 36.0937C205.109 34.4893 206.049 32.8849 208.397 32.8849H219.432V27.6803C219.432 25.1367 221.349 24.354 223.423 24.354C225.458 24.354 227.415 25.1758 227.415 27.6803V32.8849Z" fill="#323232"/>
<path d="M200.688 23.1935H200.884C203.232 23.1935 204.171 24.7857 204.171 26.3779C204.171 28.0089 203.193 29.5623 200.884 29.5623H189.848V40.2418H181.865V29.5623H170.83C168.521 29.5623 167.543 28.0089 167.543 26.3779C167.543 24.7857 168.482 23.1935 170.83 23.1935H192.627C193.879 21.0576 194.505 18.3004 194.505 14.3393V12.2034C194.505 11.6597 194.153 11.2325 193.527 11.2325H172.278C169.93 11.2325 168.834 9.48499 168.834 7.89278C168.834 6.33941 169.891 4.55303 172.278 4.55303H196.188C200.805 4.55303 202.214 6.30057 202.214 10.1063V13.7956C202.214 17.5237 201.627 20.7081 200.688 23.1935Z" fill="#323232"/>
<path d="M108.668 9.87642H109.909C112.35 9.87642 113.071 11.7568 113.071 13.3571C113.071 14.9974 112.31 16.8377 109.909 16.8377H108.668V24.2391H100.662V6.63581C100.662 4.03532 102.543 2.67506 104.665 2.67506C106.786 2.67506 108.668 4.03532 108.668 6.63581V9.87642ZM95.1785 23.2389H79.1275C75.6452 23.2389 74.5644 21.9187 74.5644 18.7581V8.31612C74.5644 5.15553 75.6452 3.87528 79.1275 3.87528H93.4573C95.7789 3.87528 96.4593 5.51559 96.4593 6.95587C96.4593 8.47615 95.7388 10.1165 93.4573 10.1165H83.0502C82.4898 10.1165 82.2497 10.3565 82.2497 10.8766V16.3176C82.2497 16.8377 82.4898 17.0778 83.0502 17.0778H95.1785C97.5001 17.0778 98.1005 18.7181 98.1005 20.1984C98.1005 21.6786 97.46 23.2389 95.1785 23.2389ZM79.2076 25.8794H103.184C108.187 25.8794 109.108 27.2397 109.108 32.0406V40.2421H101.022V33.1608C101.022 32.5607 100.702 32.2006 100.062 32.2006H79.2076C76.9661 32.2006 75.7252 30.9204 75.7252 29.04C75.7252 27.1597 76.9661 25.8794 79.2076 25.8794Z" fill="#323232"/>
<path d="M71.0221 16.6777H72.4251C74.8022 16.6777 75.5037 18.5581 75.5037 20.1584C75.5037 21.7987 74.7633 23.639 72.4251 23.639H71.0221V40.2421H63.2282V6.63581C63.2282 4.03532 65.0597 2.67506 67.1252 2.67506C69.1906 2.67506 71.0221 4.03532 71.0221 6.63581V16.6777ZM55.9018 3.99531C58.1621 3.99531 59.565 5.23554 59.565 7.91605V38.5218H43.5873C39.0668 38.5218 37.9366 36.9215 37.9366 32.5207V7.91605C37.9366 5.19554 39.4565 3.99531 41.7167 3.99531C43.938 3.99531 45.3799 5.23554 45.3799 7.91605V14.0772H52.1996V7.91605C52.1996 5.19554 53.6805 3.99531 55.9018 3.99531ZM46.4711 31.9206H52.1607V20.5984H45.3799V30.8804C45.3799 31.8005 45.5747 31.9206 46.4711 31.9206Z" fill="#323232"/>
<path d="M33.6505 9.07627H34.8586C37.2357 9.07627 37.9372 10.9566 37.9372 12.5569C37.9372 14.1972 37.1968 16.0376 34.8586 16.0376H33.6505V22.2387H25.8565V6.63581C25.8565 4.03532 27.6881 2.67506 29.7535 2.67506C31.8189 2.67506 33.6505 4.03532 33.6505 6.63581V9.07627ZM21.9985 7.1159V21.7186H5.39725C1.65613 21.7186 0.370117 20.1183 0.370117 16.7577V7.1159C0.370117 4.79546 1.77304 3.59523 4.0333 3.59523C6.17665 3.59523 7.42369 4.75545 7.50163 6.91586H14.9449C15.0228 4.71544 16.3088 3.59523 18.4522 3.59523C20.7125 3.59523 21.9985 4.83547 21.9985 7.1159ZM8.59279 16.2376H14.9059V12.1969H7.50163V15.1974C7.50163 16.1176 7.69648 16.2376 8.59279 16.2376ZM10.6972 35.5212H32.6762C34.235 35.5212 34.8975 36.7615 34.8975 37.9617C34.8975 39.0819 34.274 40.2421 32.6762 40.2421H7.07296C3.52669 40.2421 1.61716 37.9217 1.61716 35.1212V34.201C1.61716 31.5205 3.52669 29.6801 7.07296 29.6801H25.9734V28.76C25.9734 28.2799 25.8565 28.0798 25.3499 28.0798H4.18918C2.66935 28.0798 2.04583 26.9596 2.04583 25.7594C2.04583 24.6392 2.70832 23.439 4.18918 23.439H29.2859C32.6762 23.439 33.8843 24.4792 33.8843 27.5597V33.9209H10.6972C10.1516 33.9209 9.8788 34.241 9.8788 34.6011V34.8011C9.8788 35.1612 10.1516 35.5212 10.6972 35.5212Z" fill="#323232"/>
<path d="M152.709 16.6543C149.953 19.7418 146.283 20.0916 145.388 19.619C139.64 16.5837 142.32 7.70133 143.583 5.31218C144.847 2.92303 149.099 -1.02656 153.401 1.86381C157.704 4.75419 156.155 12.7949 152.709 16.6543Z" fill="#47B2FF"/>
<path d="M126.622 33.2215C129.028 30.9607 131.15 27.6606 131.909 26.2931C136.65 16.6298 143.213 20.3675 145.219 24.2875C147.225 28.2075 150.689 31.9452 152.512 33.2215C154.335 34.4978 157.344 37.962 156.25 40.7881C155.156 43.6141 152.239 44.5258 146.404 42.3378C140.57 40.1499 137.288 41.4262 134.553 42.3378C131.818 43.2495 125.437 45.5285 123.158 42.3378C120.878 39.1471 123.613 36.0476 126.622 33.2215Z" fill="#47B2FF"/>
<path d="M119.294 29.9274C122.344 32.1653 125.665 31.7587 126.366 31.1572C130.863 27.2944 126.743 19.8241 125.154 17.9215C123.564 16.0188 119.02 13.2989 115.774 16.7472C112.528 20.1955 115.482 27.1302 119.294 29.9274Z" fill="#47B2FF"/>
<path d="M160.141 30.0454C156.98 32.0035 153.727 31.3721 153.075 30.7376C148.89 26.6631 153.458 19.6954 155.154 17.9592C156.85 16.2229 161.52 13.9025 164.496 17.4851C167.472 21.0676 164.093 27.5978 160.141 30.0454Z" fill="#47B2FF"/>
<path d="M137.788 13.6627C136.816 17.47 133.882 19.3368 132.923 19.3171C126.765 19.1901 125.145 10.4818 125.165 7.90756C125.185 5.33329 127.039 0.152667 131.918 0.77392C136.798 1.39517 139.002 8.9036 137.788 13.6627Z" fill="#47B2FF"/>
</svg>

<svg xmlns="http://www.w3.org/2000/svg" width="279" height="44" fill="none" viewBox="0 0 279 44"><path fill="#323232" d="M274.924 2.675c2.097 0 3.443 1.36 3.443 3.44v34.127h-6.924V23.84h-1.979v16.403h-6.924V6.116c0-2.08 1.385-3.44 3.482-3.44s3.442 1.36 3.442 3.44v11.082h1.979V6.116c0-2.08 1.384-3.44 3.481-3.44M251.66 31.961h6.37c2.295 0 2.967 1.84 2.967 3.36 0 1.56-.712 3.32-2.967 3.32h-9.259c-5.143 0-6.093-1.24-6.093-6.24V10.276c0-5 .95-6.2 6.093-6.2h8.349c2.294 0 3.046 1.84 3.046 3.36 0 1.56-.791 3.4-3.046 3.4h-5.46c-.713 0-1.029.24-1.029 1.16V30.8c0 .92.316 1.16 1.029 1.16M208.553 20.01c5.283-.782 10.37-4.265 10.801-8.922h-9.47c-2.348 0-3.288-1.643-3.288-3.248 0-1.565.9-3.287 3.288-3.287h27.079c2.387 0 3.287 1.722 3.287 3.287 0 1.605-.939 3.248-3.287 3.248h-9.509a13.3 13.3 0 0 1-.509 2.818c7.122-.313 13.423 4.03 13.971 12.522h-7.749c-.978-4.735-5.048-7.279-9.665-6.535-3.718 4.03-9.314 6.574-13.814 6.574-2.348 0-3.835-1.33-3.835-3.404a3.05 3.05 0 0 1 2.7-3.053m18.862 12.875h11.035c2.348 0 3.287 1.604 3.287 3.209 0 1.682-.978 3.209-3.287 3.209h-30.053c-2.309 0-3.288-1.527-3.288-3.21 0-1.604.94-3.208 3.288-3.208h11.035V27.68c0-2.543 1.917-3.326 3.991-3.326 2.035 0 3.992.822 3.992 3.326zM200.688 23.194h.196c2.348 0 3.287 1.592 3.287 3.184 0 1.63-.978 3.184-3.287 3.184h-11.036v10.68h-7.983v-10.68H170.83c-2.309 0-3.287-1.553-3.287-3.184 0-1.592.939-3.184 3.287-3.184h21.797c1.252-2.136 1.878-4.894 1.878-8.855v-2.136c0-.543-.352-.97-.978-.97h-21.249c-2.348 0-3.444-1.748-3.444-3.34 0-1.554 1.057-3.34 3.444-3.34h23.91c4.617 0 6.026 1.748 6.026 5.553v3.69c0 3.728-.587 6.912-1.526 9.398M108.668 9.876h1.241c2.441 0 3.162 1.88 3.162 3.481 0 1.64-.761 3.48-3.162 3.48h-1.241v7.402h-8.006V6.636c0-2.6 1.881-3.96 4.003-3.96s4.003 1.36 4.003 3.96zM95.178 23.24h-16.05c-3.483 0-4.564-1.32-4.564-4.48V8.315c0-3.16 1.081-4.44 4.564-4.44h14.33c2.32 0 3.001 1.64 3.001 3.08 0 1.52-.72 3.16-3.002 3.16H83.05c-.56 0-.8.24-.8.76v5.442c0 .52.24.76.8.76H95.18c2.321 0 2.921 1.64 2.921 3.12s-.64 3.04-2.921 3.04m-15.97 2.64h23.976c5.003 0 5.924 1.36 5.924 6.162v8.201h-8.086v-7.081c0-.6-.32-.96-.96-.96H79.208c-2.242 0-3.483-1.28-3.483-3.161 0-1.88 1.241-3.16 3.483-3.16"/><path fill="#323232" d="M71.022 16.678h1.403c2.377 0 3.079 1.88 3.079 3.48 0 1.64-.74 3.481-3.079 3.481h-1.403v16.603h-7.794V6.636c0-2.6 1.832-3.96 3.897-3.96 2.066 0 3.897 1.36 3.897 3.96zM55.902 3.995c2.26 0 3.663 1.24 3.663 3.921v30.606H43.587c-4.52 0-5.65-1.6-5.65-6.001V7.916c0-2.72 1.52-3.92 3.78-3.92 2.221 0 3.663 1.24 3.663 3.92v6.161h6.82v-6.16c0-2.721 1.48-3.922 3.702-3.922m-9.43 27.926h5.689V20.598H45.38V30.88c0 .92.195 1.04 1.091 1.04M33.65 9.076h1.209c2.377 0 3.078 1.88 3.078 3.48 0 1.641-.74 3.482-3.078 3.482H33.65v6.2h-7.793V6.637c0-2.6 1.831-3.96 3.896-3.96s3.898 1.36 3.898 3.96zM22 7.116v14.603H5.397c-3.74 0-5.027-1.6-5.027-4.961V7.116c0-2.32 1.403-3.52 3.663-3.52 2.144 0 3.39 1.16 3.469 3.32h7.443c.078-2.2 1.364-3.32 3.507-3.32 2.26 0 3.546 1.24 3.546 3.52M8.593 16.238h6.313v-4.041H7.502v3c0 .92.194 1.04 1.09 1.04m2.104 19.283h21.98c1.558 0 2.22 1.24 2.22 2.44 0 1.12-.623 2.281-2.22 2.281H7.072c-3.546 0-5.456-2.32-5.456-5.12V34.2c0-2.68 1.91-4.52 5.456-4.52h18.9v-.921c0-.48-.116-.68-.623-.68H4.19c-1.52 0-2.144-1.12-2.144-2.32 0-1.12.662-2.321 2.143-2.321h25.097c3.39 0 4.598 1.04 4.598 4.12v6.362H10.697c-.545 0-.818.32-.818.68v.2c0 .36.273.72.818.72"/><path fill="#47b2ff" d="M152.709 16.654c-2.756 3.088-6.426 3.438-7.321 2.965-5.748-3.035-3.068-11.918-1.805-14.307s5.516-6.339 9.818-3.448c4.303 2.89 2.754 10.93-.692 14.79M126.622 33.222c2.406-2.261 4.528-5.561 5.287-6.929 4.741-9.663 11.304-5.925 13.31-2.005s5.47 7.657 7.293 8.933c1.823 1.277 4.832 4.741 3.738 7.567s-4.011 3.738-9.846 1.55c-5.834-2.188-9.116-.912-11.851 0-2.735.911-9.116 3.19-11.395 0s.455-6.29 3.464-9.117"/><path fill="#47b2ff" d="M119.294 29.927c3.05 2.238 6.371 1.832 7.072 1.23 4.497-3.863.377-11.333-1.212-13.235-1.59-1.903-6.134-4.623-9.38-1.175s-.292 10.383 3.52 13.18M160.141 30.045c-3.161 1.959-6.414 1.327-7.066.693-4.185-4.075.383-11.043 2.079-12.779s6.366-4.056 9.342-.474c2.976 3.583-.403 10.113-4.355 12.56M137.788 13.663c-.972 3.807-3.906 5.674-4.865 5.654-6.158-.127-7.778-8.835-7.758-11.41s1.874-7.754 6.753-7.133c4.88.621 7.084 8.13 5.87 12.889"/></svg>
